source/images/icons/icon-editorial/poubelle.svg

<?xml version="1.0" encoding="UTF-8"?>
<svg width="80px" height="80px" viewBox="0 0 80 80" version="1.1" xmlns="http://www.w3.org/2000/svg" xmlns:xlink="http://www.w3.org/1999/xlink">
    <!-- Generator: Sketch 55.2 (78181) - https://sketchapp.com -->
    <title>Illustrative Icons/Poubelle</title>
    <desc>Created with Sketch.</desc>
    <g id="Illustrative-Icons/Poubelle" stroke="none" stroke-width="1" fill="none" fill-rule="evenodd">
        <path d="M58.6666667,75.3333334 L22,75.3333334 C19.2385763,75.3333334 17,73.0947572 17,70.3333334 L17,27 C17,26.0795254 17.7461921,25.3333334 18.6666667,25.3333334 C19.5871413,25.3333334 20.3333333,26.0795254 20.3333333,27 L20.3333333,70.3333334 C20.3333333,71.253808 21.0795254,72 22,72 L58.6666667,72 C59.5871413,72 60.3333334,71.253808 60.3333334,70.3333334 L60.3333334,20.3333333 L47,20.3333333 L47,12 C47,11.0795254 46.253808,10.3333333 45.3333334,10.3333333 L35.3333334,10.3333333 C34.4128588,10.3333333 33.6666667,11.0795254 33.6666667,12 L33.6666667,20.3333333 L27,20.3333333 C26.0795254,20.3333333 25.3333333,19.5871413 25.3333333,18.6666667 C25.3333333,17.7461921 26.0795254,17 27,17 L30.3333334,17 L30.3333334,12 C30.3333334,9.23857625 32.5719096,7 35.3333334,7 L45.3333334,7 C48.0947571,7 50.3333334,9.23857625 50.3333334,12 L50.3333334,17 L63.6666667,17 L63.6666667,70.3333334 C63.6666667,73.0947572 61.4280905,75.3333334 58.6666667,75.3333334 Z M28.6666667,65.3333334 C27.7461921,65.3333334 27,64.5871413 27,63.6666667 L27,33.6666667 C27,32.7461921 27.7461921,32 28.6666667,32 C29.5871413,32 30.3333334,32.7461921 30.3333334,33.6666667 L30.3333334,63.6666667 C30.3333334,64.5871413 29.5871413,65.3333334 28.6666667,65.3333334 Z M40.3333334,65.3333334 C39.4128588,65.3333334 38.6666667,64.5871413 38.6666667,63.6666667 L38.6666667,33.6666667 C38.6666667,32.7461921 39.4128588,32 40.3333334,32 C41.2538079,32 42,32.7461921 42,33.6666667 L42,63.6666667 C42,64.5871413 41.2538079,65.3333334 40.3333334,65.3333334 Z M52,65.3333334 C51.0795255,65.3333334 50.3333334,64.5871413 50.3333334,63.6666667 L50.3333334,33.6666667 C50.3333334,32.7461921 51.0795255,32 52,32 C52.9204746,32 53.6666667,32.7461921 53.6666667,33.6666667 L53.6666667,63.6666667 C53.6666667,64.5871413 52.9204746,65.3333334 52,65.3333334 Z M18.6666667,20.3333333 C19.5871413,20.3333333 20.3333333,19.5871413 20.3333333,18.6666667 C20.3333333,17.7461921 19.5871413,17 18.6666667,17 C17.7461921,17 17,17.7461921 17,18.6666667 C17,19.5871413 17.7461921,20.3333333 18.6666667,20.3333333 Z" id="Shape-color" fill="#ADB5BD"></path>
    </g>
</svg>

<svg width="80" height="80">
    <title>
        Illustrative Icons/Poubelle
    </title>
    <path d="M58.667 75.333H22a5 5 0 0 1-5-5V27a1.667 1.667 0 0 1 3.333 0v43.333c0 .92.747 1.667 1.667 1.667h36.667c.92 0 1.666-.746 1.666-1.667v-50H47V12c0-.92-.746-1.667-1.667-1.667h-10c-.92 0-1.666.747-1.666 1.667v8.333H27A1.667 1.667 0 1 1 27 17h3.333v-5a5 5 0 0 1 5-5h10a5 5 0 0 1 5 5v5h13.334v53.333a5 5 0 0 1-5 5zm-30-10c-.92 0-1.667-.746-1.667-1.666v-30a1.667 1.667 0 0 1 3.333 0v30c0 .92-.746 1.666-1.666 1.666zm11.666 0c-.92 0-1.666-.746-1.666-1.666v-30a1.667 1.667 0 0 1 3.333 0v30c0 .92-.746 1.666-1.667 1.666zm11.667 0c-.92 0-1.667-.746-1.667-1.666v-30a1.667 1.667 0 1 1 3.334 0v30c0 .92-.747 1.666-1.667 1.666zm-33.333-45a1.667 1.667 0 1 0 0-3.333 1.667 1.667 0 0 0 0 3.333z" fill="#ADB5BD" fill-rule="evenodd"/>
</svg>
